!!!COM: Bach, Johann Sebastian
!!!CDT: 1685/02/21/-1750/07/28/
!!!OTL@@DE: Helft mir Gotts G&uuml;te preisen
!!!SCT: BWV 16/6
!!!PC#: 99
!!!AGN: chorale
**harm	**kern	**kern	**kern	**kern
*	*ICvox	*ICvox	*ICvox	*ICvox
*	*Ibass	*Itenor	*Ialto	*Isoprn
*	*I"Bass	*I"Tenor	*I"Alto	*I"Soprano
*>[A,A,B]	*>[A,A,B]	*>[A,A,B]	*>[A,A,B]	*>[A,A,B]
*>norep[A,B]	*>norep[A,B]	*>norep[A,B]	*>norep[A,B]	*>norep[A,B]
*>A	*>A	*>A	*>A	*>A
*	*	*oclefC4	*oclefC3	*oclefC1
*	*clefF4	*clefGv2	*clefG2	*clefG2
*k[]	*k[]	*k[]	*k[]	*k[]
*a:	*a:	*a:	*a:	*a:
*M4/4	*M4/4	*M4/4	*M4/4	*M4/4
*met(c)	*met(c)	*met(c)	*met(c)	*met(c)
*MM100	*MM100	*MM100	*MM100	*MM100
i	4A	4c	4e	4a
=1	=1	=1	=1	=1
VI	4F	4c	4f	4a
viio6/III	4D	4d	4f	4b
III6	4E	4G	4g	4cc
G:V6	4F#	4d	4a	4dd
=2	=2	=2	=2	=2
I	4G	4d	4g	4b
vi	4E	4e	4g	4b
V6;	4F#;	4d;	4a;	4dd;
a:V6	4G#	4B	4e	4ee
=3	=3	=3	=3	=3
i	4A	4c	4e	4cc
i6	4c	4e	4a	4a
ii%65	4D	4fnX	4a	4b
V7	4E	4d	4g#	4b
=4	=4	=4	=4	=4
i;	2.AA;	2.c;	2.e;	2.a;
*>B	*>B	*>B	*>B	*>B
III	4C	4GnX	4e	4ee
=5	=5	=5	=5	=5
viio6	4B	4B	4g#	4dd
i	4A	4e	4a	4cc
viio7	4G#	4d	4fnX	4b
i	4A	4c	4e	4a
=6	=6	=6	=6	=6
V;	2.E;	2.B;	2.g#;	2.b;
V	4E	4e	4g#	4b
=7	=7	=7	=7	=7
i	4A	4e	4a	4cc
C:viio64	4F	4f	4b	4dd
I	4c	4g	4cc	4ee
I6	4E	4c	4g	4ee
=8	=8	=8	=8	=8
G:V6	4F#	4A	4a	4dd
V	4D	4d	4f#	4dd
I;	4G;	4d;	4g;	4b;
C:V2	4F	4d	4g	4b
=9	=9	=9	=9	=9
I6	4E	4G	4g	4cc
ii	4D	4A	4f	4dd
a:viio7/iv	4C#	4B-	4e	4ee
viio65/iv	4E	4G	4g	4ee
=10	=10	=10	=10	=10
iv6	4F	4A	4f	4dd
iv7	4D	4A	4a	4cc
V;	4E;	4e;	4g#;	4b;
V6	4GG#	4e	4b	4ee
=11	=11	=11	=11	=11
i	4AA	4E	4a	4cc
i6	4C	4A	4e	4a
ii%65	4D	4A	4f	4b
V7	4E	4G#	4d	4b
=12	=12	=12	=12	=12
I;	2.AA;	2.E;	2.c#;	2.a;
==	==	==	==	==
*-	*-	*-	*-	*-
!!!YOR1: 371 vierstimmige Choralges&auml;nge von Johann Sebastian Bach, 
!!!YOR2: 4th ed. by Alfred D&ouml;rffel (Leipzig: Breitkopf und H&auml;rtel, 
!!!YOR2: c.1875). 178 pp. Plate "V.A.10".  reprint: J.S. Bach, 371 Four-Part 
!!!YOR4: Chorales (New York: Associated Music Publishers, Inc., c.1940).
!!!SMS: B&H, 4th ed, Alfred D&ouml;rffel, c.1875, plate V.A.10
!!!EED:  Craig Stuart Sapp
!!!EEV:  2009/05/22
